X:1
T:The Boys of Wexford
M:4/4
L:1/8
K:F
 C| F3 GF-ED-C| c3 d c2 B2| A2 F2A-GF-E| D6 E2| F3 GF-ED-C| c3 d c2 B2|\
 A2 G2F-GA-=B| c6 c2| d3 B f2 d2| c3 B A2 c2| B2 A2 G2 F2| D6 DE| F3 GF-ED-C|\
 c3 d c2 B2| A2 F2A-GF-E| F6 z||
